X:1
T:John Turner's Maggot
L:1/8
M:C|
R:Reel
C:T. S. Macdonald
K:Cm
=B | c2 ec GcEc | DBFE DB,B,=B | c2 ec GcEc | FD G/F/E/D/ ECC=B | c2 ec GcEc | DBFE DB,B,D | EGce dc=Bd | ecd=B c3 ||
d | ec c/c/c egfe | dB B/B/B FB B/B/B | ec c/c/c egfe | dba^f  g2 cd | ec c/c/c egfe | dB B/B/B FB B/B/B | EGce dc=Bd | ecd=B c3 |]

